icons/Business/line-chart-fill.svg

<svg viewBox="0 0 24 24" xmlns="http://www.w3.org/2000/svg"><path d="M5 3V19H21V21H3V3H5ZM19.9393 5.93934L22.0607 8.06066L16 14.1213L13 11.121L9.06066 15.0607L6.93934 12.9393L13 6.87868L16 9.879L19.9393 5.93934Z"/></svg>

<svg xmlns="http://www.w3.org/2000/svg" viewBox="0 0 24 24">
    <g>
        <path fill="none" d="M0 0H24V24H0z"/>
        <path d="M5 3v16h16v2H3V3h2zm14.94 2.94l2.12 2.12L16 14.122l-3-3-3.94 3.94-2.12-2.122L13 6.88l3 3 3.94-3.94z"/>
    </g>
</svg>
